build/system/ChevronLeftOutline.svg

<svg xmlns="http://www.w3.org/2000/svg" fill="none" viewBox="0 0 24 24" focusable="false"><path d="M0 0H24V24H0z"/><path fill="#74767B" d="M14.5082 18.7543C14.6882 18.7543 14.8582 18.6843 14.9882 18.5443C15.2282 18.2743 15.2082 17.8643 14.9482 17.6243L8.57906 11.884L14.9882 6.33399C15.2582 6.09399 15.2682 5.68398 15.0282 5.41398C14.7882 5.15399 14.3782 5.13399 14.1082 5.37399L7.20906 11.364C6.89906 11.644 6.89906 12.124 7.20906 12.404L14.0682 18.5843C14.1982 18.7043 14.3482 18.7543 14.5082 18.7543Z"/></svg>

<svg xmlns="http://www.w3.org/2000/svg" fill="none" viewBox="0 0 24 24" focusable="false"><path fill="#74767B" d="M14.5 18.75c.18 0 .35-.07.48-.21.24-.27.22-.68-.04-.92l-6.37-5.74 6.41-5.55a.65.65 0 0 0 .04-.92.66.66 0 0 0-.92-.04l-6.9 5.99c-.31.28-.31.76 0 1.04l6.86 6.18c.13.12.28.17.44.17"/></svg>
